svgs/sharp-light/interrobang.svg

<svg xmlns="http://www.w3.org/2000/svg" viewBox="0 0 320 512"><!--! Font Awesome Pro 6.6.0 by @fontawesome - https://fontawesome.com License - https://fontawesome.com/license (Commercial License) Copyright 2024 Fonticons, Inc. --><path d="M144 64c-53 0-96 43-96 96l-32 0C16 89.3 73.3 32 144 32l32 0c70.7 0 128 57.3 128 128c0 35.3-16.6 68.4-44.8 89.6L176 312l0 32 0 8 0 8 0 8-32 0 0-8 0-8 0-8 0-40 0-8 0-136 0-16 32 0 0 16 0 112 64-48c20.1-15.1 32-38.8 32-64c0-53-43-96-96-96l-32 0zm-8 360l48 0 0 48-48 0 0-48z"/></svg>

<svg xmlns="http://www.w3.org/2000/svg" viewBox="0 0 320 512"><!--! Font Awesome Pro 6.4.0 by @fontawesome - https://fontawesome.com License - https://fontawesome.com/license (Commercial License) Copyright 2023 Fonticons, Inc. --><path d="M144 64c-53 0-96 43-96 96H16C16 89.3 73.3 32 144 32h32c70.7 0 128 57.3 128 128c0 35.3-16.6 68.4-44.8 89.6L176 312v32 8 8 8H144v-8-8-8V304v-8V160 144h32v16V272l64-48c20.1-15.1 32-38.8 32-64c0-53-43-96-96-96H144zm-8 360h48v48H136V424z"/></svg>
